X:264
T: ALLERSCHOENSTER ENGEL
N: Z0262
O: Europa, Mitteleuropa, Deutschland
R: lyrisches Lied, Romanze, Abschieds - Lied
M: 2/4
L: 1/16
K: C
 | c4B4 | c2G2E2C2 |
c2c2B2B2 | c4z4 |
c4B4 | c2G2E2C2 |
c2c2B2B2 | c4
G4 | A2A2A2A2 | G2B2G2
G2 | f4f2e2 | d6
G2 | G4G2_B2 | A2c2F4 |
A2A2A2c2 | B2d2G2
G2 | c3Bc3B | c6
E2 | F4G4 | C8

@@@ Tune index: 10022
